<?xml version="1.0" encoding="UTF-8"?>
<map version="1.10" tiledversion="1.12.2" orientation="orthogonal" renderorder="right-down" width="40" height="30" tilewidth="32" tileheight="32" infinite="0" nextlayerid="8" nextobjectid="19">
 <tileset firstgid="1" source="../tilesets/Exterior.tsx"/>
 <layer id="1" name="chao" width="40" height="30">
  <data encoding="csv">
47,47,47,47,47,47,47,47,47,47,47,47,47,47,47,47,47,47,47,47,47,47,47,47,47,47,47,47,47,47,47,47,47,47,47,47,47,47,47,47,
47,47,47,47,47,47,47,47,47,47,47,47,47,47,47,47,47,47,47,47,47,47,47,47,47,47,47,47,47,47,47,47,47,47,47,47,47,47,47,47,
47,47,47,47,47,47,47,47,47,47,47,47,47,47,47,47,47,47,47,47,47,47,47,47,47,47,47,47,47,47,47,47,47,47,47,47,47,47,47,47,
47,47,47,47,47,47,47,47,47,47,47,47,47,47,47,47,47,47,47,47,47,47,47,47,47,47,47,47,47,47,47,47,47,47,47,47,47,47,47,47,
47,47,47,47,47,47,47,47,47,47,47,47,47,47,47,47,47,47,47,47,47,47,47,47,47,47,47,47,47,47,47,47,47,47,47,47,47,47,47,47,
47,47,47,47,47,47,47,47,47,47,47,47,47,47,47,47,47,47,47,47,47,47,47,47,47,47,47,47,47,47,47,47,47,47,47,47,47,47,47,47,
47,47,47,47,47,47,47,47,47,47,47,47,47,47,47,47,47,47,47,47,47,47,47,47,47,47,47,47,47,47,47,47,47,47,47,47,47,47,47,47,
47,47,47,47,47,47,47,47,47,47,47,47,47,47,47,47,47,47,47,47,47,47,47,47,47,47,47,47,47,47,47,47,47,47,47,47,47,47,47,47,
47,47,47,47,47,47,47,47,47,47,47,47,47,47,47,47,47,47,47,47,47,47,47,47,47,47,47,47,47,47,47,47,47,47,47,47,47,47,47,47,
47,47,47,47,47,47,47,47,47,47,47,47,47,47,47,47,47,47,47,47,47,47,47,47,47,47,47,47,47,47,47,47,47,47,47,47,47,47,47,47,
47,47,47,47,47,47,47,47,47,47,47,47,47,47,47,47,47,47,47,47,47,47,47,47,47,47,47,47,47,47,47,47,47,47,47,47,47,47,47,47,
47,47,47,47,47,47,47,47,47,47,47,47,47,47,47,47,47,47,47,47,47,47,47,47,47,47,47,47,47,47,47,47,47,47,47,47,47,47,47,47,
47,47,47,47,47,47,47,47,47,47,47,47,47,47,47,47,47,47,47,47,47,47,47,47,47,47,47,47,47,47,47,47,47,47,47,47,47,47,47,47,
47,47,47,47,47,47,47,47,47,47,47,47,47,47,47,47,47,47,47,47,47,47,47,47,47,47,47,47,47,47,47,47,47,47,47,47,47,47,47,47,
47,47,47,47,47,47,47,47,47,47,47,47,47,47,47,47,47,47,47,47,47,47,47,47,47,47,47,47,47,47,47,47,47,47,47,47,47,47,47,47,
47,47,47,47,47,47,47,47,47,47,47,47,47,47,47,47,47,47,47,47,47,47,47,47,47,47,47,47,47,47,47,47,47,47,47,47,47,47,47,47,
47,47,47,47,47,47,47,47,47,47,47,47,47,47,47,47,47,47,47,47,47,47,47,47,47,47,47,47,47,47,47,47,47,47,47,47,47,47,47,47,
47,47,47,47,47,47,47,47,47,47,47,47,47,47,47,47,47,47,47,47,47,47,47,47,47,47,47,47,47,47,47,47,47,47,47,47,47,47,47,47,
47,47,47,47,47,47,47,47,47,47,47,47,47,47,47,47,47,47,47,47,47,47,47,47,47,47,47,47,47,47,47,47,47,47,47,47,47,47,47,47,
47,47,47,47,47,47,47,47,47,47,47,47,47,47,47,47,47,47,47,47,47,47,47,47,47,47,47,47,47,47,47,47,47,47,47,47,47,47,47,47,
47,47,47,47,47,47,47,47,47,47,47,47,47,47,47,47,47,47,47,47,47,47,47,47,47,47,47,47,47,47,47,47,47,47,47,47,47,47,47,47,
47,47,47,47,47,47,47,47,47,47,47,47,47,47,47,47,47,47,47,47,47,47,47,47,47,47,47,47,47,47,47,47,47,47,47,47,47,47,47,47,
47,47,47,47,47,47,47,47,47,47,47,47,47,47,47,47,47,47,47,47,47,47,47,47,47,47,47,47,47,47,47,47,47,47,47,47,47,47,47,47,
47,47,47,47,47,47,47,47,47,47,47,47,47,47,47,47,47,47,47,47,47,47,47,47,47,47,47,47,47,47,47,47,47,47,47,47,47,47,47,47,
47,47,47,47,47,47,47,47,47,47,47,47,47,47,47,47,47,47,47,47,47,47,47,47,47,47,47,47,47,47,47,47,47,47,47,47,47,47,47,47,
47,47,47,47,47,47,47,47,47,47,47,47,47,47,47,47,47,47,47,47,47,47,47,47,47,47,47,47,47,47,47,47,47,47,47,47,47,47,47,47,
47,47,47,47,47,47,47,47,47,47,47,47,47,47,47,47,47,47,47,47,47,47,47,47,47,47,47,47,47,47,47,47,47,47,47,47,47,47,47,47,
47,47,47,47,47,47,47,47,47,47,47,47,47,47,47,47,47,47,47,47,47,47,47,47,47,47,47,47,47,47,47,47,47,47,47,47,47,47,47,47,
47,47,47,47,47,47,47,47,47,47,47,47,47,47,47,47,47,47,47,47,47,47,47,47,47,47,47,47,47,47,47,47,47,47,47,47,47,47,47,47,
47,47,47,47,47,47,47,47,47,47,47,47,47,47,47,47,47,47,47,47,47,47,47,47,47,47,47,47,47,47,47,47,47,47,47,47,47,47,47,47
</data>
 </layer>
 <layer id="2" name="Caminhos" width="40" height="30">
  <data encoding="csv">
47,47,47,47,47,47,47,47,47,47,47,47,47,47,47,47,47,0,42,42,42,47,47,47,47,47,47,47,47,47,47,47,47,47,47,47,47,47,47,47,
47,47,47,47,47,47,47,47,47,47,47,47,47,47,47,47,47,47,42,42,42,47,47,47,47,47,47,47,47,47,47,47,47,47,47,47,47,47,47,47,
47,47,47,47,47,47,47,47,47,47,47,47,47,47,47,47,47,47,42,42,42,47,47,47,47,47,47,47,47,47,47,47,47,47,47,47,47,47,47,47,
47,47,47,47,47,47,47,47,47,47,47,47,47,47,47,47,47,47,42,42,42,42,42,42,42,42,42,42,42,42,47,47,47,47,47,47,47,47,47,47,
47,47,47,47,47,47,47,47,47,47,47,47,47,47,47,47,47,47,42,42,42,42,42,42,42,42,42,42,42,42,47,47,47,47,47,47,47,47,47,47,
47,47,47,47,47,47,47,47,47,47,47,47,47,47,47,47,47,47,42,42,42,42,42,42,42,42,42,42,42,42,47,47,47,47,47,47,47,47,47,47,
47,47,47,47,47,47,47,47,47,47,47,47,47,47,47,47,47,47,47,47,47,47,47,47,47,47,47,42,42,42,47,47,47,47,47,47,47,47,47,47,
47,47,47,47,47,47,47,47,47,47,47,47,47,47,47,47,47,47,47,47,47,47,47,47,47,47,47,42,42,42,47,47,47,47,47,47,47,47,47,47,
47,47,47,47,47,47,47,47,47,47,47,47,47,47,47,47,47,47,47,47,47,47,47,47,47,47,47,42,42,42,47,47,47,47,47,47,47,47,47,47,
47,47,47,47,47,47,47,47,47,47,47,47,47,47,47,47,47,42,42,42,42,42,42,42,42,42,42,42,42,42,47,47,47,47,47,47,47,47,47,47,
47,47,47,47,47,47,47,47,47,47,47,47,47,47,47,47,47,42,42,42,42,42,42,42,42,42,42,42,42,42,47,47,47,47,47,47,47,47,47,47,
47,47,47,47,47,47,47,47,47,47,47,47,47,47,47,47,47,42,42,42,42,42,42,42,42,42,42,42,42,42,47,47,47,47,47,47,47,47,47,47,
47,47,47,47,47,47,47,47,47,47,47,47,47,47,47,47,47,42,42,42,47,47,47,47,47,47,47,47,47,47,47,47,47,47,47,47,47,47,47,47,
47,47,47,47,47,47,47,47,47,47,47,47,47,47,47,47,47,42,42,42,47,47,47,47,47,47,47,47,47,47,47,47,47,47,47,47,47,47,47,47,
47,47,47,47,47,47,47,47,47,47,47,47,42,42,42,42,42,42,42,42,47,47,47,47,47,47,47,47,47,47,47,47,47,47,47,47,47,47,47,47,
47,47,47,47,47,47,47,47,47,47,47,47,42,42,42,42,42,42,42,42,47,47,47,47,47,47,47,47,47,47,47,47,47,47,47,47,47,47,47,47,
47,47,47,47,47,47,47,47,47,47,47,47,42,42,42,42,42,42,42,42,47,47,47,47,47,47,47,47,47,47,47,47,47,47,47,47,47,47,47,47,
47,47,47,47,47,47,47,47,47,47,47,47,42,42,42,47,47,47,47,47,47,47,47,47,47,47,47,47,47,47,47,47,47,47,47,47,47,47,47,47,
47,47,47,47,47,47,47,47,47,47,47,47,42,42,42,47,47,47,47,47,47,47,47,47,47,47,47,47,47,47,47,47,47,47,47,47,47,47,47,47,
47,47,47,47,47,47,47,47,47,47,47,47,42,42,42,42,42,42,42,42,42,42,42,42,42,42,42,42,42,42,42,42,47,47,47,47,47,47,47,47,
47,47,47,47,47,47,47,47,47,47,47,47,42,42,42,42,42,42,42,42,42,42,42,42,42,42,42,42,42,42,42,42,47,47,47,47,47,47,47,47,
47,47,47,47,47,47,47,47,47,47,47,47,42,42,42,42,42,42,42,42,42,42,42,42,42,42,42,42,42,42,42,42,47,47,47,47,47,47,47,47,
47,47,47,47,47,47,47,47,47,47,47,47,47,47,47,47,47,47,47,47,47,47,47,47,47,47,47,47,47,42,42,42,47,47,47,47,47,47,47,47,
47,47,47,47,47,47,47,47,47,47,47,47,47,47,47,47,47,47,47,47,47,47,47,47,47,47,47,47,47,42,42,42,47,47,47,47,47,47,47,47,
47,47,47,47,47,47,47,47,47,47,47,47,47,47,47,47,47,47,42,42,42,42,42,42,42,42,42,42,42,42,42,42,47,47,47,47,47,47,47,47,
47,47,47,47,47,47,47,47,47,47,47,47,47,47,47,47,47,47,42,42,42,42,42,42,42,42,42,42,42,42,42,42,47,47,47,47,47,47,47,47,
47,47,47,47,47,47,47,47,47,47,47,47,47,47,47,47,47,47,42,42,42,42,42,42,42,42,42,42,42,42,42,42,47,47,47,47,47,47,47,47,
47,47,47,47,47,47,47,47,47,47,47,47,47,47,47,47,47,47,42,42,42,47,47,47,47,47,47,47,47,47,47,47,47,47,47,47,47,47,47,47,
47,47,47,47,47,47,47,47,47,47,47,47,47,47,47,47,47,47,42,42,42,47,47,47,47,47,47,47,47,47,47,47,47,47,47,47,47,47,47,47,
47,47,47,47,47,47,47,47,47,47,47,47,47,47,47,47,47,47,42,42,42,47,47,47,47,47,47,47,47,47,47,47,47,47,47,47,47,47,47,47
</data>
 </layer>
 <layer id="3" name="ParedesVegetacao" width="40" height="30">
  <properties>
   <property name="colisao" type="bool" value="true"/>
  </properties>
  <data encoding="csv">
0,0,0,0,0,0,0,0,0,0,0,0,0,0,0,0,67,0,57,57,57,0,0,0,0,0,0,0,0,0,0,0,0,0,0,0,0,0,0,0,
0,0,0,0,0,0,0,0,0,0,0,0,0,0,0,0,67,0,57,57,57,0,0,67,67,0,0,0,0,0,0,0,116,116,116,116,116,62,116,0,
0,116,116,116,116,116,116,116,116,116,116,116,116,116,116,116,116,0,57,57,57,0,116,116,116,116,116,116,116,116,116,0,116,62,62,62,62,62,62,0,
0,62,62,62,62,62,62,116,116,62,62,62,62,62,62,62,62,62,57,57,57,57,57,57,57,57,57,57,57,57,116,0,116,62,62,116,62,116,116,0,
0,62,62,62,62,62,62,116,116,62,62,62,62,62,62,62,62,62,57,57,57,57,57,57,57,57,57,57,57,57,116,0,116,62,62,116,62,62,62,0,
0,116,116,116,116,62,62,116,116,62,62,116,116,116,116,116,116,116,57,57,57,57,57,57,57,57,57,57,57,57,116,0,116,62,62,116,116,116,116,0,
0,0,0,0,116,62,62,116,116,62,62,116,0,0,0,0,0,116,116,116,116,116,116,116,116,116,116,57,57,57,116,0,116,62,62,116,116,116,116,0,
0,116,116,116,116,62,62,116,116,62,62,116,116,116,116,116,0,0,0,0,0,0,0,0,0,0,116,57,57,57,116,0,116,62,62,62,62,62,116,0,
0,62,62,62,62,62,62,62,62,62,62,62,62,62,62,116,116,116,116,116,116,116,116,116,116,116,116,57,57,57,116,0,116,62,62,62,62,62,116,0,
0,62,62,62,62,62,62,62,62,62,62,62,62,62,62,116,116,57,57,57,57,57,57,57,57,57,57,57,57,57,116,0,116,62,62,62,62,62,116,0,
0,116,116,116,116,62,62,116,116,116,116,116,62,62,62,62,62,57,57,57,57,57,57,57,57,57,57,57,57,57,116,0,116,116,116,116,62,62,62,0,
0,0,0,0,116,62,62,116,0,0,0,116,62,62,62,62,62,57,57,57,57,57,57,57,57,57,57,57,57,57,116,0,0,0,0,116,62,62,62,0,
0,0,0,0,116,62,62,116,116,116,116,116,116,116,116,116,116,57,57,57,116,116,116,116,116,116,116,116,116,116,116,0,0,0,0,116,62,62,62,0,
0,0,116,116,116,62,62,62,62,62,116,116,116,116,116,116,116,57,57,57,116,67,0,0,0,0,0,0,0,0,0,0,0,0,0,116,62,62,62,0,
0,116,116,62,62,62,62,116,116,116,116,116,57,57,57,57,57,57,57,57,116,67,0,0,0,0,0,0,116,116,116,116,116,116,116,116,62,62,62,0,
0,62,116,116,116,62,62,116,116,116,67,116,57,57,57,57,57,57,57,57,116,67,0,0,0,0,0,0,116,62,62,62,62,62,62,62,62,62,62,0,
0,62,116,0,116,62,62,62,62,116,67,116,57,57,57,57,57,57,57,62,116,67,0,0,0,0,0,0,116,62,62,62,62,62,62,62,62,62,62,0,
0,62,116,0,116,62,62,116,116,116,67,116,57,57,57,116,116,116,116,116,116,0,0,0,0,0,0,0,116,116,116,116,116,116,116,116,62,62,62,0,
0,62,116,116,116,116,116,116,0,0,0,116,57,57,57,116,116,116,116,116,116,116,116,116,116,116,116,116,116,116,116,116,116,116,116,116,62,62,62,0,
0,62,62,116,116,116,0,0,0,0,0,116,57,57,57,57,57,57,57,57,57,57,57,57,57,57,57,57,57,57,57,62,62,62,62,62,62,62,62,0,
0,116,62,62,62,116,0,0,0,0,0,116,57,57,57,57,57,57,57,57,57,57,57,57,57,57,57,57,57,57,57,62,62,62,62,62,62,62,62,0,
0,116,116,116,62,116,0,0,0,0,0,116,57,57,57,57,57,57,57,57,57,57,57,57,57,57,57,57,57,57,57,57,62,62,62,62,62,62,62,0,
0,0,0,116,62,116,116,116,116,116,0,116,116,116,116,116,116,116,116,116,116,116,116,116,116,116,116,116,116,57,57,57,116,116,116,116,116,116,116,0,
0,0,116,116,62,116,62,62,62,116,0,0,0,0,0,0,0,116,116,116,116,116,116,116,116,116,116,116,116,57,57,57,116,0,0,0,0,0,0,0,
0,0,116,62,62,116,116,62,116,116,116,116,116,116,116,116,116,116,57,57,57,57,57,57,57,57,57,57,57,57,57,57,116,0,0,0,0,0,0,0,
0,0,116,62,62,116,116,62,116,116,62,62,62,62,62,62,62,62,57,57,57,57,57,57,57,57,57,57,57,57,57,57,116,0,0,0,0,0,0,0,
0,0,116,62,62,116,116,62,116,116,62,62,62,62,62,62,62,62,57,57,57,57,57,57,57,57,57,57,57,57,57,57,116,0,0,0,0,0,0,0,
0,0,116,62,62,116,116,62,116,116,62,62,62,62,62,62,62,62,57,57,57,0,116,116,116,116,116,116,116,116,116,116,116,0,0,0,0,0,0,0,
0,0,116,62,62,62,62,62,62,62,62,62,116,116,116,116,0,0,57,57,57,0,0,0,0,0,0,0,0,0,0,0,0,0,0,0,0,0,0,0,
0,0,0,0,0,0,0,0,0,0,0,0,0,0,0,0,0,0,57,57,57,0,0,0,0,0,0,0,0,0,0,0,0,0,0,0,0,0,0,0
</data>
 </layer>
 <layer id="7" name="MurosPedra" width="40" height="30">
  <properties>
   <property name="colisao" type="bool" value="true"/>
  </properties>
  <data encoding="csv">
196,157,157,157,157,157,157,157,157,157,157,157,157,157,157,157,157,198,0,0,0,196,197,197,197,197,197,197,197,197,197,277,277,277,277,277,197,197,197,198,
236,0,0,0,0,0,0,0,0,0,0,0,0,0,0,0,0,236,0,0,0,236,0,0,0,0,0,0,0,0,0,0,0,0,0,0,0,0,0,238,
236,0,0,0,0,0,0,0,0,0,0,0,0,0,0,0,0,278,0,0,0,276,0,0,0,0,0,0,0,0,0,0,0,0,0,0,0,0,0,238,
236,0,0,0,0,0,0,0,0,0,0,0,0,0,0,0,0,0,0,0,0,0,0,0,0,0,0,0,0,0,0,0,0,0,0,0,0,0,0,238,
236,0,0,0,0,0,0,0,0,0,0,0,0,0,0,0,0,0,0,0,0,0,0,0,0,0,0,0,0,0,0,0,0,0,0,0,0,0,0,238,
236,0,0,0,0,0,0,0,0,0,0,0,0,0,0,0,0,0,0,0,0,0,0,0,0,0,0,0,0,0,0,0,0,0,0,0,0,0,0,238,
236,0,0,0,0,0,0,0,0,0,0,0,0,0,0,0,0,0,0,0,0,0,0,0,0,0,0,0,0,0,0,0,0,0,0,0,0,0,0,238,
236,0,0,0,0,0,0,0,0,0,0,0,0,0,0,0,0,0,0,0,0,0,0,0,0,0,0,0,0,0,0,0,0,0,0,0,0,0,0,238,
236,0,0,0,0,0,0,0,0,0,0,0,0,0,0,0,0,0,0,0,0,0,0,0,0,0,0,0,0,0,0,0,0,0,0,0,0,0,0,238,
236,0,0,0,0,0,0,0,0,0,0,0,0,0,0,0,0,0,0,0,0,0,0,0,0,0,0,0,0,0,0,0,0,0,0,0,0,0,0,238,
236,0,0,0,0,0,0,0,0,0,0,0,0,0,0,0,0,0,0,0,0,0,0,0,0,0,0,0,0,0,0,0,0,0,0,0,0,0,0,238,
236,0,0,0,0,0,0,0,0,0,0,0,0,0,0,0,0,0,0,0,0,0,0,0,0,0,0,0,0,0,0,0,0,0,0,0,0,0,0,238,
236,0,0,0,0,0,0,0,0,0,0,0,0,0,0,0,0,0,0,0,0,0,0,0,0,0,0,0,0,0,0,0,0,0,0,0,0,0,0,238,
236,0,0,0,0,0,0,0,0,0,0,0,0,0,0,0,0,0,0,0,0,0,0,0,0,0,0,0,0,0,0,0,0,0,0,0,0,0,0,238,
236,0,0,0,0,0,0,0,0,0,0,0,0,0,0,0,0,0,0,0,0,0,0,0,0,0,0,0,0,0,0,0,0,0,0,0,0,0,0,238,
236,0,0,0,0,0,0,0,0,0,0,0,0,0,0,0,0,0,0,0,0,0,0,0,0,0,0,0,0,0,0,0,0,0,0,0,0,0,0,238,
236,0,0,0,0,0,0,0,0,0,0,0,0,0,0,0,0,0,0,0,0,0,0,0,0,0,0,0,0,0,0,0,0,0,0,0,0,0,0,238,
236,0,0,0,0,0,0,0,0,0,0,0,0,0,0,0,0,0,0,0,0,0,0,0,0,0,0,0,0,0,0,0,0,0,0,0,0,0,0,238,
236,0,0,0,0,0,0,0,0,0,0,0,0,0,0,0,0,0,0,0,0,0,0,0,0,0,0,0,0,0,0,0,0,0,0,0,0,0,0,238,
236,0,0,0,0,0,0,0,0,0,0,0,0,0,0,0,0,0,0,0,0,0,0,0,0,0,0,0,0,0,0,0,0,0,0,0,0,0,0,238,
236,0,0,0,0,0,0,0,0,0,0,0,0,0,0,0,0,0,0,0,0,0,0,0,0,0,0,0,0,0,0,0,0,0,0,0,0,0,0,238,
236,0,0,0,0,0,0,0,0,0,0,0,0,0,0,0,0,0,0,0,0,0,0,0,0,0,0,0,0,0,0,0,0,0,0,0,0,0,0,238,
236,0,0,0,0,0,0,0,0,0,0,0,0,0,0,0,0,0,0,0,0,0,0,0,0,0,0,0,0,0,0,0,0,0,0,0,0,0,0,238,
236,0,0,0,0,0,0,0,0,0,0,0,0,0,0,0,0,0,0,0,0,0,0,0,0,0,0,0,0,0,0,0,0,0,0,0,0,0,0,238,
236,0,0,0,0,0,0,0,0,0,0,0,0,0,0,0,0,0,0,0,0,0,0,0,0,0,0,0,0,0,0,0,0,0,0,0,0,0,0,238,
236,0,0,0,0,0,0,0,0,0,0,0,0,0,0,0,0,0,0,0,0,0,0,0,0,0,0,0,0,0,0,0,0,0,0,0,0,0,0,238,
236,0,0,0,0,0,0,0,0,0,0,0,0,0,0,0,0,0,0,0,0,0,0,0,0,0,0,0,0,0,0,0,0,0,0,0,0,0,0,238,
236,0,0,0,0,0,0,0,0,0,0,0,0,0,0,0,0,0,0,0,0,196,0,0,0,0,0,0,0,0,0,0,0,0,0,0,0,0,0,238,
236,0,0,0,0,0,0,0,0,0,0,0,0,0,0,0,197,198,0,0,0,236,0,0,0,0,0,0,0,0,0,0,0,0,0,0,0,0,0,238,
276,277,277,277,277,277,277,277,277,277,277,277,277,277,277,277,277,278,0,0,0,276,197,197,197,197,197,197,197,197,197,197,197,197,197,197,197,197,197,278
</data>
 </layer>
 <objectgroup id="4" name="PontosImportantes">
  <object id="3" name="spawn_jogador" x="625.5" y="961">
   <point/>
  </object>
  <object id="4" name="saida_escadaria" x="621" y="1.5">
   <point/>
  </object>
 </objectgroup>
 <objectgroup id="5" name="RotasGuardas">
  <object id="11" name="patrulha_central" x="600" y="628">
   <polyline points="0,0 -130,4 -158,2 -158,-76"/>
  </object>
  <object id="12" name="patrulha_leste" x="1104" y="636">
   <polyline points="0,0 88,0 84,-72"/>
  </object>
  <object id="14" name="patrulha_nordeste" x="1102" y="262">
   <polyline points="0,0 86,8 84,98"/>
  </object>
  <object id="16" name="patrulha_superior" x="518" y="340">
   <polyline points="0,0 -84,4 -80,-66"/>
  </object>
  <object id="17" name="patrulha_oeste" x="136" y="860">
   <polyline points="0,0 4,54 42,54 82,52"/>
  </object>
  <object id="18" name="patrulha_saida" x="764" y="144">
   <polyline points="0,0 98,-6 150,-8 150,78"/>
  </object>
 </objectgroup>
</map>
